X: 1
T: Larry Redican's
M: 4/4
L: 1/8
R: reel
K: Cmaj
{B}c2Bc AGED | CA,~A,2 G,A,CD |1 EGce dcAG | 
A~d3 dfed :|2 EGce dcAG | FEDF ECC2 ||
{B}c2gc acgc | fdec dcBc |Gc~c2 Gceg | aege d2eg |
ae(3eee gedc |cd(3edc dcAG |EGce dcAG | FEDF ECC2 :||
